remix/Device/bluetooth-connect-fill.svg

<svg viewBox="0 0 24 24" fill="currentColor" xmlns="http://www.w3.org/2000/svg"><path d="M14.3113 12L18.6544 16.3431L12.9976 22H10.9976V15.3137L6.63359 19.6777L5.21938 18.2635L10.9976 12.4853V11.5147L5.21938 5.73654L6.63359 4.32233L10.9976 8.68629V2H12.9976L18.6544 7.65685L14.3113 12ZM12.9976 13.5147V19.1716L15.826 16.3431L12.9976 13.5147ZM12.9976 10.4853L15.826 7.65685L12.9976 4.82843V10.4853ZM19.5 13.5C18.6716 13.5 18 12.8284 18 12C18 11.1716 18.6716 10.5 19.5 10.5C20.3284 10.5 21 11.1716 21 12C21 12.8284 20.3284 13.5 19.5 13.5ZM6.5 13.5C5.67157 13.5 5 12.8284 5 12C5 11.1716 5.67157 10.5 6.5 10.5C7.32843 10.5 8 11.1716 8 12C8 12.8284 7.32843 13.5 6.5 13.5Z"/></svg>

<svg viewBox="0 0 24 24" xmlns="http://www.w3.org/2000/svg"><path fill="none" d="M0 0h24v24H0Z"/><path d="M14.341 12.03l4.34 4.34 -5.66 5.65h-2V15.33l-4.37 4.36 -1.415-1.42L11 12.49v-.97L5.22 5.74 6.64 4.32 11 8.68V2h2l5.65 5.65 -4.343 4.34Zm-1.32 1.51v5.65l2.82-2.83 -2.83-2.83Zm0-3.03l2.82-2.83 -2.83-2.83v5.657Zm6.47 2.98v0c-.83 0-1.5-.68-1.5-1.5 0-.83.67-1.5 1.5-1.5v0c.82 0 1.5.67 1.5 1.5 0 .82-.68 1.5-1.5 1.5Zm-13 0v0c-.83 0-1.5-.68-1.5-1.5 0-.83.67-1.5 1.5-1.5v0c.82 0 1.5.67 1.5 1.5 0 .82-.68 1.5-1.5 1.5Z"/></svg>
